X:1
T:Jesus, the Light of the World
T:Jesus, the Light of the World
T:Arranged
T:Mrs. James Vincent Coombs, 1898
T:Public Domain Courtesy of the Cyber Hymnal™
C:Arranged
Z:Public Domain
Z:Courtesy of the Cyber Hymnal™
%%score ( 1 2 ) 3
L:1/8
Q:1/4=95
M:6/8
K:F
V:1 treble 
V:2 treble 
V:3 bass 
V:1
 [FA]2 [Fc] [Fc]2 [Fc] | [FA]2 [EG] F3 | [FA][FA]>[FA] [Fd][Fc]>[FA] | [EG]3- [EG]2 z | %4
w: 1.~All ye saints of|light pro- claim,|Je- sus, the light of the|world; *|
w: 2.~Hear the Sav- ior’s|ear- nest call,|Je- sus, the light of the|world; *|
w: 3.~Why not seek Him|then to- day,|Je- sus, the light of the|world; *|
w: 4.~Come, con- fess Him|as your king,|Je- sus, the light of the|world; *|
 [FA]2 [Fc] [Fc]2 [Fc] | [FA]2 [EG] F3 | [FA][FA]>[CF] [EG][EG]>[EG] | F3- F2 || %8
w: Life and mer- cy|in His name,|Je- sus, the light of the|world. *|
w: Send the Gos- pel|truth to all,|Je- sus, the light of the|world. *|
w: Go with truth the|nar- row way,|Je- sus, the light of the|world. *|
w: Then the bells of|Heav’n will ring,|Je- sus, the light of the|world. *|
"^Refrain" !fermata![Fc] | [FA][Ac][Ac] [Ac]3 | [FA][Ac][Ac] [Ac]3 | [FA][Ac]>[Ac] [Bd][Ac][FA] | %12
w: ||||
w: We’ll|walk in the light,|beau- ti- ful light,|Come where the dew- drops of|
w: ||||
w: ||||
 [DA][DG][FG] [EG]3 | [FA][Ac]>[Ac] [Ac][FA][CF] | [DG][DF][B,D] [DF]3 | %15
w: |||
w: mer- cy are bright;|Shine all a- round us by|day and by night,|
w: |||
w: |||
 [CA][CA]>[CF] [EG][EG]>[CG] | [CF]3- [CF]2 |] %17
w: ||
w: Je- sus, the light of the|world. *|
w: ||
w: ||
V:2
 x6 | x3 F3 | x6 | x6 | x6 | x3 F3 | x6 | F3- F2 || x | x6 | x6 | x6 | x6 | x6 | x6 | x6 | x5 |] %17
V:3
 [F,C]2 [F,A,] [F,B,]2 [F,A,] | [C,C]2 [C,B,] [F,A,]3 | [F,C][F,C]>[F,C] [F,B,][F,A,]>[F,C] | %3
 [C,C]3- [C,C]2 z | [F,C]2 [F,A,] [F,B,]2 [F,A,] | [C,C]2 [C,B,] [F,A,]3 | %6
 [F,C][F,C]>[F,A,] [C,B,][C,B,]>[C,B,] | [F,A,]3- [F,A,]2 || !fermata![F,A,] | %9
 [F,C][F,F][F,F] [F,F]3 | [F,C][F,F][F,F] [F,F]3 | [F,C][F,F]>[F,F] [F,F][F,F][F,C] | %12
 [G,=B,][G,B,][G,D] [C,C]3 | [F,C][F,F]>[F,F] [F,F][F,C][F,A,] | [B,,B,][B,,B,][B,,F,] [B,,B,]3 | %15
 [C,F,][C,F,]>[C,A,] [C,B,][C,B,]>[C,B,] | [F,A,]3- [F,A,]2 |] %17

